X:13033
T:Miss Drummond of Perth's Favourite Scotch Measure
R:Reel
C:Niel Gow
O:Scotland
Z:Paul Hardy's Possible Tunebook 2015 (see www.paulhardy.net). Creative Commons cc by-nc-sa licenced.
M:4/4
L:1/8
Q:1/4=120
K:C
AB|"Am"c2Bc A2AB|c2cd e2dc|"G" B2g2 G2d2|BcdG "E"E2 AB|
"Am"c2Bc A^GAB|cBcd e2^f^g|a2e2 "Dm"fedc|"E"B4 "Am"A2:|
|:ab|"Am"c'2 "G"b2 "Am"a2(3^gab|a2e2 z2^f2|"G"g3a gabc'|dcBA G2AB|
"Am"cBcA "Dm"dcdB|"Am"ede^f gfge|a2e2 "Dm"fedc|"E"B2 ^G2 "Am"A2:|
|:(3E^F^G|"Am"A^GAB cBcd|edcB ABcA|"G"BdGd BdGB|"Em"gabg GABG|
"Am"A^GAB cBcd|edcB ABcA|"G"BcdB "E"e2d2|B2 ^G2 "Am"A2:|
|:a^g|"Am"aeae aeae|ABcd edcB|"G"gdgd gdgd|GABc (3dcBab|
"Am"c'2ba "E"b2a^g|"Am"a2bc' e2dc|"D"d2ef "E"edcB|"Am"c2 A2 A2:|

